symbols/web/backup_table/materialsymbolssharp/backup_table_wght700grad200_40px.svg

<svg xmlns="http://www.w3.org/2000/svg" height="40" width="40"><path d="M12.875 27.167h9.042v-9.042h-9.042Zm0-12.459h21.458v-9H12.875Zm12.417 12.459h9.041v-9.042h-9.041ZM8.458 31.583V1.25H38.75v30.333ZM1.292 38.75V8.5h4.416v25.833h25.834v4.417Z"/></svg>

<svg xmlns="http://www.w3.org/2000/svg" height="40" width="40"><path d="M12.875 27.167H21.917V18.125H12.875ZM12.875 14.708H34.333V5.708H12.875ZM25.292 27.167H34.333V18.125H25.292ZM8.458 31.583V1.25H38.75V31.583ZM1.292 38.75V8.5H5.708V34.333H31.542V38.75Z"/></svg>
